icons/.local/share/icons/Tela/scalable/apps/htop.svg

<svg width="64" height="64" version="1.1" viewBox="0 0 16.933 16.933" xmlns="http://www.w3.org/2000/svg" xmlns:xlink="http://www.w3.org/1999/xlink">
 <defs>
  <linearGradient id="f" x1="32" x2="53.891" y1="43.543" y2="43.543" gradientTransform="scale(.26458)" gradientUnits="userSpaceOnUse">
   <stop stop-color="#b9c0ff" offset="0"/>
   <stop stop-color="#7380ff" offset="1"/>
  </linearGradient>
  <linearGradient id="e" x1="10" x2="53.891" y1="32" y2="32" gradientTransform="scale(.26458)" gradientUnits="userSpaceOnUse">
   <stop stop-color="#fff" offset="0"/>
   <stop stop-color="#fff" stop-opacity="0" offset="1"/>
  </linearGradient>
  <linearGradient id="g" x1="32" x2="32" y1="32" y2="6" gradientTransform="scale(.26458)" gradientUnits="userSpaceOnUse">
   <stop stop-color="#fff" offset="0"/>
   <stop stop-color="#fff" offset="1"/>
  </linearGradient>
 </defs>
 <circle cx="8.4665" cy="8.4665" r="7.1436" fill="#5b65cb" fill-rule="evenodd"/>
 <path transform="scale(.26458)" d="m32.002 9.9961v1.002h-3.002v-0.77148a22.001 22.001 0 0 0-1 0.14844v0.62305h-2.4824a22.001 22.001 0 0 0-2.623 1.002h1.1055v2.998h-2.9961v-2.0234a22.001 22.001 0 0 0-1.002 0.58984v1.4336h-1.9434a22.001 22.001 0 0 0-2.0586 1.9395v2.0625h-1.7188a22.001 22.001 0 0 0-0.69922 1.002h2.418v2.9961h-2.998v-2.0508a22.001 22.001 0 0 0-1.002 1.9395v0.11133h-0.052734a22.001 22.001 0 0 0-0.41797 1.002h0.4707v2.998h-1.4004a22.001 22.001 0 0 0-0.2168 1.002h1.6172v3h-1.9492a22.001 22.001 0 0 0-0.050781 0.99805c0.006888 2.55e-4 0.012575 0.003906 0.019531 0.003906h1.9805v2.998h-1.7695a22.001 22.001 0 0 0 0.14844 1h1.6211v2.998h-0.82617a22.001 22.001 0 0 0 0.33594 1.002h0.49023v1.0977a22.001 22.001 0 0 0 1.5723 2.9043h2.4277v2.998h-0.068359a22.001 22.001 0 0 0 1.0684 1.0547v-0.052735h3.002v2.4141a22.001 22.001 0 0 0 2.8887 1.584h1.1094v0.46875a22.001 22.001 0 0 0 1.002 0.36523v-0.83398h2.998v1.6172a22.001 22.001 0 0 0 1 0.15039v-1.7676h3.002v2a22.001 22.001 0 0 0 1.002-0.037109v-1.9629h2.9961v1.6211a22.001 22.001 0 0 0 1.002-0.22461v-1.3965h2.998v0.49219a22.001 22.001 0 0 0 1.002-0.44727v-0.044922h0.099609a22.001 22.001 0 0 0 1.9395-1.002h-2.0391v-2.9961h3v2.4297a22.001 22.001 0 0 0 1.002-0.7168v-1.7129h2.0742a22.001 22.001 0 0 0 1.9238-2.0566v-1.9434h1.4141a22.001 22.001 0 0 0 0.61719-1.002h-2.0312v-3h2.998v1.1172a22.001 22.001 0 0 0 1.002-2.5684v-2.5488h0.61914a22.001 22.001 0 0 0 0.15039-1h-0.76953v-2.998h1.002a22.001 22.001 0 0 0 0-0.003906 22.001 22.001 0 0 0-0.037109-0.99805h-0.96484v-3h0.62305a22.001 22.001 0 0 0-0.22461-1.002h-0.39844v-1.4844a22.001 22.001 0 0 0-1.002-2.623v0.10742h-2.998v-2.9961h1.4355a22.001 22.001 0 0 0-0.7168-1.002h-0.71875v-0.94531a22.001 22.001 0 0 0-1.002-1.1406v2.0859h-2.9961v-3h2.0625a22.001 22.001 0 0 0-1.1172-1.002h-0.94531v-0.71875a22.001 22.001 0 0 0-1.002-0.69922v1.418h-3v-2.998h0.11914a22.001 22.001 0 0 0-2.5684-1.002h-1.5508v-0.40234a22.001 22.001 0 0 0-1.002-0.2168v0.61914h-2.9961v-0.95117a22.001 22.001 0 0 0-1.002-0.050781zm-7 2.0039h2.998v2.998h-2.998v-2.998zm3.998 0h3.002v2.998h-3.002v-2.998zm4.0039 0h2.9961v2.998h-2.9961v-2.998zm3.998 0h2.998v2.998h-2.998v-2.998zm-20.002 4h3.002v3h-3.002v-3zm4.0039 0h2.9961v3h-2.9961v-3zm3.998 0h2.998v3h-2.998v-3zm3.998 0h3.002v3h-3.002v-3zm4.0039 0h2.9961v3h-2.9961v-3zm3.998 0h2.998v3h-2.998v-3zm4 0h3v3h-3v-3zm-24.002 4.002h3.002v2.9961h-3.002v-2.9961zm4.0039 0h2.9961v2.9961h-2.9961v-2.9961zm3.998 0h2.998v2.9961h-2.998v-2.9961zm3.998 0h3.002v2.9961h-3.002v-2.9961zm4.0039 0h2.9961v2.9961h-2.9961v-2.9961zm3.998 0h2.998v2.9961h-2.998v-2.9961zm4 0h3v2.9961h-3v-2.9961zm4.002 0h2.9961v2.9961h-2.9961v-2.9961zm-32.002 3.998h2.998v2.998h-2.998v-2.998zm3.998 0h3.002v2.998h-3.002v-2.998zm4.0039 0h2.9961v2.998h-2.9961v-2.998zm3.998 0h2.998v2.998h-2.998v-2.998zm3.998 0h3.002v2.998h-3.002v-2.998zm4.0039 0h2.9961v2.998h-2.9961v-2.998zm3.998 0h2.998v2.998h-2.998v-2.998zm4 0h3v2.998h-3v-2.998zm4.002 0h2.9961v2.998h-2.9961v-2.998zm3.998 0h2.998v2.998h-2.998v-2.998zm-36 4h2.998v3h-2.998v-3zm3.998 0h3.002v3h-3.002v-3zm4.0039 0h2.9961v3h-2.9961v-3zm3.998 0h2.998v3h-2.998v-3zm3.998 0h3.002v3h-3.002v-3zm4.0039 0h2.9961v3h-2.9961v-3zm3.998 0h2.998v3h-2.998v-3zm4 0h3v3h-3v-3zm4.002 0h2.9961v3h-2.9961v-3zm3.998 0h2.998v3h-2.998v-3zm-36 4.002h2.998v2.998h-2.998v-2.998zm3.998 0h3.002v2.998h-3.002v-2.998zm4.0039 0h2.9961v2.998h-2.9961v-2.998zm3.998 0h2.998v2.998h-2.998v-2.998zm3.998 0h3.002v2.998h-3.002v-2.998zm4.0039 0h2.9961v2.998h-2.9961v-2.998zm3.998 0h2.998v2.998h-2.998v-2.998zm4 0h3v2.998h-3v-2.998zm4.002 0h2.9961v2.998h-2.9961v-2.998zm3.998 0h2.998v2.998h-2.998v-2.998zm-36 3.998h2.998v2.998h-2.998v-2.998zm3.998 0h3.002v2.998h-3.002v-2.998zm4.0039 0h2.9961v2.998h-2.9961v-2.998zm3.998 0h2.998v2.998h-2.998v-2.998zm3.998 0h3.002v2.998h-3.002v-2.998zm4.0039 0h2.9961v2.998h-2.9961v-2.998zm3.998 0h2.998v2.998h-2.998v-2.998zm4 0h3v2.998h-3v-2.998zm4.002 0h2.9961v2.998h-2.9961v-2.998zm3.998 0h2.998v2.998h-2.998v-2.998zm-36 4h2.998v3h-2.998v-3zm3.998 0h3.002v3h-3.002v-3zm4.0039 0h2.9961v3h-2.9961v-3zm3.998 0h2.998v3h-2.998v-3zm3.998 0h3.002v3h-3.002v-3zm4.0039 0h2.9961v3h-2.9961v-3zm3.998 0h2.998v3h-2.998v-3zm4 0h3v3h-3v-3zm4.002 0h2.9961v3h-2.9961v-3zm-28.004 4.002h3.002v2.998h-3.002v-2.998zm4.0039 0h2.9961v2.998h-2.9961v-2.998zm3.998 0h2.998v2.998h-2.998v-2.998zm3.998 0h3.002v2.998h-3.002v-2.998zm4.0039 0h2.9961v2.998h-2.9961v-2.998zm3.998 0h2.998v2.998h-2.998v-2.998zm4 0h3v2.998h-3v-2.998zm4.002 0h2.9961v2.998h-2.9961v-2.998zm-24 4h2.9961v2.9961h-2.9961v-2.9961zm3.998 0h2.998v2.9961h-2.998v-2.9961zm3.998 0h3.002v2.9961h-3.002v-2.9961zm4.0039 0h2.9961v2.9961h-2.9961v-2.9961zm3.998 0h2.998v2.9961h-2.998v-2.9961z" opacity=".1" stroke-width="3.7796" style="paint-order:stroke markers fill"/>
 <g fill-rule="evenodd">
  <circle cx="8.467" cy="8.466" r="5.821" opacity=".25"/>
  <path d="m8.467 2.646a5.82 5.82 0 0 0-5.821 5.82 5.82 5.82 0 0 0 5.82 5.821 5.82 5.82 0 0 0 5.821-5.82 5.82 5.82 0 0 0-5.82-5.821zm0 0.529a5.292 5.292 0 0 1 5.291 5.291 5.292 5.292 0 0 1-5.291 5.292 5.292 5.292 0 0 1-5.292-5.292 5.292 5.292 0 0 1 5.292-5.291z" fill="#7380ff"/>
  <g stroke-width=".26458">
   <path d="m8.4666 2.6458a5.8208 5.8208 0 0 0-5.8208 5.8208 5.8208 5.8208 0 0 0 5.8208 5.8208 5.8208 5.8208 0 0 0 5.7917-5.2916h-0.52651a5.2916 5.2916 0 0 1-5.2651 4.7624 5.2916 5.2916 0 0 1-5.2916-5.2916 5.2916 5.2916 0 0 1 5.2916-5.2916z" fill="url(#e)"/>
   <path d="m13.993 8.7539a0.26458 0.26458 0 0 0-0.26458 0.26458 0.26458 0.26458 0 0 0 0 0.00106 5.2916 5.2916 0 0 1-5.2617 4.7386v0.52916a5.8208 5.8208 0 0 0 5.7784-5.1892 0.26458 0.26458 0 0 0 0.01243-0.079639 0.26458 0.26458 0 0 0-5.29e-4 -0.012435 5.8208 5.8208 0 0 0 0.0013-0.010319h-0.002088a0.26458 0.26458 0 0 0-0.26352-0.24183z" fill="url(#f)"/>
   <path d="m8.4666 2.6458a0.26458 0.26458 0 0 0-0.02487 0.00106 5.8208 5.8208 0 0 0-5.7959 5.8197h0.52916a5.2916 5.2916 0 0 1 5.2916-5.2916 0.26458 0.26458 0 0 0 0.26458-0.26458 0.26458 0.26458 0 0 0-0.26458-0.26458z" fill="url(#g)"/>
  </g>
 </g>
 <path d="m5.556 4.763v2.116h0.53v-2.117zm1.059 0v2.116h0.529v-2.117zm3.175 0v2.116h0.529v-2.117zm1.058 0v2.116h0.53v-2.117zm-5.292 2.645v2.117h0.53v-2.117zm1.059 0v2.117h0.529v-2.117zm1.058 0v2.117h0.53v-2.117zm1.058 0v2.117h0.53v-2.117zm1.059 0v2.117h0.529v-2.117zm1.058 0v2.117h0.53v-2.117zm-5.292 2.646v2.117h0.53v-2.117zm1.059 0v2.117h0.529v-2.117zm3.175 0v2.117h0.529v-2.117zm1.058 0v2.117h0.53v-2.117z" fill="#fff"/>
</svg>

<svg xmlns="http://www.w3.org/2000/svg" width="64" height="64" viewBox="0 0 16.933 16.933"><defs><linearGradient id="b" x1="32" x2="53.891" y1="43.543" y2="43.543" gradientTransform="scale(.26458)" gradientUnits="userSpaceOnUse"><stop offset="0" stop-color="#b9c0ff"/><stop offset="1" stop-color="#7380ff"/></linearGradient><linearGradient id="a" x1="10" x2="53.891" y1="32" y2="32" gradientTransform="scale(.26458)" gradientUnits="userSpaceOnUse"><stop offset="0" stop-color="#fff"/><stop offset="1" stop-color="#fff" stop-opacity="0"/></linearGradient><linearGradient id="c" x1="32" x2="32" y1="32" y2="6" gradientTransform="scale(.26458)" gradientUnits="userSpaceOnUse"><stop offset="0" stop-color="#fff"/><stop offset="1" stop-color="#fff"/></linearGradient></defs><circle cx="8.466" cy="8.466" r="7.144" fill="#5b65cb" fill-rule="evenodd"/><path d="M32.002 9.996v1.002H29v-.771a22 22 0 0 0-1 .148v.623h-2.482A22 22 0 0 0 22.895 12H24v2.998h-2.996v-2.023a22 22 0 0 0-1.002.59v1.433h-1.943A22 22 0 0 0 16 16.938V19h-1.719a22 22 0 0 0-.699 1.002H16v2.996h-2.998v-2.05A22 22 0 0 0 12 22.886v.111h-.053A22 22 0 0 0 11.53 24H12v2.998h-1.4A22 22 0 0 0 10.383 28H12v3h-1.95a22 22 0 0 0-.05.998l.02.004H12V35h-1.77a22 22 0 0 0 .149 1H12v2.998h-.826A22 22 0 0 0 11.51 40H12v1.098a22 22 0 0 0 1.572 2.904H16V47h-.068A22 22 0 0 0 17 48.055v-.053h3.002v2.414A22 22 0 0 0 22.891 52H24v.47a22 22 0 0 0 1.001.364V52H28v1.618a22 22 0 0 0 1 .15V52h3.002v2a22 22 0 0 0 1.002-.037V52H36v1.621a22 22 0 0 0 1.002-.224V52H40v.492a22 22 0 0 0 1.002-.447V52h.1a22 22 0 0 0 1.94-1.002h-2.04v-2.996h3v2.43a22 22 0 0 0 1.002-.717v-1.713h2.075a22 22 0 0 0 1.923-2.056v-1.944h1.414A22 22 0 0 0 51.034 43h-2.032v-3H52v1.117a22 22 0 0 0 1.002-2.568V36h.62a22 22 0 0 0 .15-1h-.77v-2.998h1.002v-.004a22 22 0 0 0-.037-.998h-.965v-3h.624a22 22 0 0 0-.225-1.002h-.399v-1.484A22 22 0 0 0 52 22.89v.107h-2.998v-2.996h1.436A22 22 0 0 0 49.721 19h-.719v-.945A22 22 0 0 0 48 16.915V19h-2.996v-3h2.063a22 22 0 0 0-1.117-1.002h-.946v-.719a22 22 0 0 0-1.002-.699v1.418h-3V12h.12a22 22 0 0 0-2.569-1.002h-1.55v-.402A22 22 0 0 0 36 10.379v.62h-2.996v-.952a22 22 0 0 0-1.002-.05zm-7 2.004H28v2.998h-2.998zM29 12h3.002v2.998H29zm4.004 0H36v2.998h-2.996zm3.998 0H40v2.998h-2.998zM17 16h3.002v3H17zm4.004 0H24v3h-2.996zm3.998 0H28v3h-2.998zM29 16h3.002v3H29zm4.004 0H36v3h-2.996zm3.998 0H40v3h-2.998zm4 0h3v3h-3zM17 20.002h3.002v2.996H17zm4.004 0H24v2.996h-2.996zm3.998 0H28v2.996h-2.998zm3.998 0h3.002v2.996H29zm4.004 0H36v2.996h-2.996zm3.998 0h2.997v2.996h-2.998v-2.996zm4 0h3v2.996h-3zm4.001 0H48v2.996h-2.996zM13.002 24H16v2.998h-2.998zM17 24h3.002v2.998H17zm4.003 0H24v2.998h-2.996V24zm3.998 0H28v2.998h-2.998zM29 24h3.002v2.998H29zm4.004 0H36v2.998h-2.996zm3.998 0H40v2.998h-2.998zm4 0h3v2.998h-3zm4.002 0H48v2.998h-2.996zm3.998 0H52v2.998h-2.998zm-36 4H16v3h-2.998zM17 28h3.002v3H17zm4.004 0H24v3h-2.996zm3.998 0H28v3h-2.998zM29 28h3.002v3H29zm4.004 0H36v3h-2.996zm3.998 0H40v3h-2.998zm4 0h3v3h-3zm4.002 0H48v3h-2.996zm3.998 0H52v3h-2.998zm-36 4.002H16V35h-2.998zm3.998 0h3.002V35H17zm4.004 0H24V35h-2.996zm3.998 0H28V35h-2.998zm3.998 0h3.002V35H29zm4.004 0H36V35h-2.996zm3.998 0H40V35h-3v-2.998zm4 0h3V35h-3zm4.002 0H48V35h-2.996zm3.998 0H52V35h-3v-2.998zM13 36h2.998v2.998H13zm3.998 0H20v2.998h-3.002zm4.004 0h2.996v2.998h-2.996zM25 36h2.998v2.998H25zm3.998 0H32v2.998h-3.002zm4.004 0h2.996v2.998h-2.996zM37 36h2.998v2.998H37zm4 0h3v2.998h-3zm4.002 0h2.996v2.998h-2.996zM49 36h2.998v2.998H49zm-36 4h2.998v3H13zm3.998 0H20v3h-3.002zm4.004 0h2.996v3h-2.996zM25 40h2.998v3H25zm3.998 0H32v3h-3.002zm4.004 0h2.996v3h-2.996zM37 40h2.998v3H37zm4 0h3v3h-3zm4.002 0h2.996v3h-2.996zm-28.004 4.002H20V47h-3.002zm4.003 0H24V47h-2.997v-2.998zm3.998 0h2.998V47H25v-2.998zm3.998 0H32V47h-3.002v-2.998zm4.004 0h2.996V47h-2.996zm3.998 0h2.998V47H37zm4 0h3V47h-3zm4.002 0h2.996V47h-2.996zm-24 4h2.996v2.996h-2.996zm3.998 0h2.998v2.996H25v-2.996zm3.998 0H32v2.996h-3.002v-2.996zm4.004 0h2.996v2.996h-2.996zm3.998 0h2.998v2.996H37z" opacity=".1" style="paint-order:stroke markers fill" transform="scale(.26458)"/><g fill-rule="evenodd"><circle cx="8.467" cy="8.466" r="5.821" opacity=".25"/><path fill="#7380ff" d="M8.467 2.646a5.82 5.82 0 0 0-5.821 5.82 5.82 5.82 0 0 0 5.82 5.821 5.82 5.82 0 0 0 5.821-5.82 5.82 5.82 0 0 0-5.82-5.821m0 .529a5.29 5.29 0 0 1 5.291 5.291 5.29 5.29 0 0 1-5.291 5.292 5.29 5.29 0 0 1-5.292-5.292 5.29 5.29 0 0 1 5.292-5.291"/><g stroke-width=".265"><path fill="url(#a)" d="M8.467 2.646a5.82 5.82 0 0 0-5.821 5.82 5.82 5.82 0 0 0 5.82 5.821 5.82 5.82 0 0 0 5.792-5.291h-.526a5.29 5.29 0 0 1-5.265 4.762 5.29 5.29 0 0 1-5.292-5.291 5.29 5.29 0 0 1 5.292-5.292z"/><path fill="url(#b)" d="M13.993 8.754a.265.265 0 0 0-.265.264v.002a5.29 5.29 0 0 1-5.261 4.738v.53a5.82 5.82 0 0 0 5.778-5.19.3.3 0 0 0 .013-.08l-.001-.012.001-.01h-.002a.265.265 0 0 0-.263-.242"/><path fill="url(#c)" d="M8.467 2.646h-.025a5.82 5.82 0 0 0-5.796 5.82h.529a5.29 5.29 0 0 1 5.292-5.291.265.265 0 0 0 .264-.265.265.265 0 0 0-.264-.264"/></g></g><path fill="#fff" d="M5.556 4.763v2.116h.53V4.762zm1.059 0v2.116h.529V4.762zm3.175 0v2.116h.529V4.762zm1.058 0v2.116h.53V4.762zM5.556 7.408v2.117h.53V7.408zm1.059 0v2.117h.529V7.408zm1.058 0v2.117h.53V7.408zm1.058 0v2.117h.53V7.408zm1.059 0v2.117h.529V7.408zm1.058 0v2.117h.53V7.408zm-5.292 2.646v2.117h.53v-2.117zm1.059 0v2.117h.529v-2.117zm3.175 0v2.117h.529v-2.117zm1.058 0v2.117h.53v-2.117z"/></svg>
